window-shutter-open.svg

<svg fill="currentColor" viewBox="0 0 24 24"><path d="M3 4h18v4h-2v12h-2V8H7v12H5V8H3zm5 5h8v2H8z"/></svg>

<svg  viewBox="0 0 24 24" fill="currentColor"><path  d="M3 4H21V8H19V20H17V8H7V20H5V8H3V4M8 9H16V11H8V9Z"/></svg>
